X:1
T:3 Little Songs
T:A Memory
T:3 Little Songs
T:Maude Valérie White
T:2. A Memory
T:Unknown
T:OpenScore (CC0)
T:OpenScore (CC0)
C:Maude Valérie White
Z:Unknown
Z:OpenScore (CC0)
%%score 1 { 2 | ( 3 4 5 ) }
L:1/8
Q:1/4=71
M:6/8
K:Ab
V:1 treble nm="Voice"
V:2 treble nm="Piano"
V:3 bass 
V:4 bass 
V:5 bass 
V:1
"^Un poco lento" z6[Q:1/4=55] ||[Q:1/4=94]"^Moderato"!mf! c3/2 B/ A B2 A | F2 E G2 F | %3
w: |Oh! to be light of|heart once more, To|
!<(! E2 A3/4 B/4 c2 e | F3- F2 F | (dc3/2) B/!<)!!>(! f2 f | e2 (d/c/) d2 c | %7
w: ride through the woods a-|gain _ As|once * I rode ere|sweet- est * joy Had|
 B2 D!>)! c2"^rall:"[Q:1/4=80] B | A2- A z2 z | z6 | z6 | !fermata!z6 | %12
w: turn’d to sad- dest|pain. _||||
"^Wistfully"[Q:1/4=75] c B3/2!<(! A/ B2 A | F2 E!<)! G2!<(! F | (EA) B c2 e | F3-!<)! F2 F | %16
w: Do you re- mem- ber|that glad day, That|sun- * bath’d day in|June _ When|
!<(! (dc3/2) B/ f2 f |"^poco accellerando"[Q:1/4=90] e2 (d/c/) d2 c!<)! | %18
w: all _ the world was|har- mo- * ny And|
 B2"^With ecstasy"!<(! D"^rall:"[Q:1/4=75] c2!<)!!>(! B | A6-!>)! | A2 z z2 z | z6 | !fermata!z6 || %23
w: you\-\- the per- fect|tune?|_|||
!p![Q:1/4=70] c B3/2!<(! A/ B2!<)!!>(! A!>)! | F2 E G2 F | %25
w: No one will e- ver|love a tune as|
 (EA) B"^molto rall:"[Q:1/4=55]!>(! c2 e!>)! | F3- F2 F | (dc3/2) B/ !breath!f2!p! f | %28
w: I _ that sim- ple|lay, _ Con-|tent * to live be-|
 e2 (d/c/) d2 c |"^Still more tenderly."[Q:1/4=45] B2 D !breath!c2!p! B | %30
w: cause you * were So|good to me that|
!<(! A3-!<)!!>(! !fermata!A!>)! z z | z6[Q:1/4=30] | z6 |] %33
w: day. _|||
V:2
!p!!<(! e>"^rall."_f-!<)! (f/>e/)!>(! e z z!>)! || [EAc]>B[CEA] [DEGB]2 [EA] | %2
 [A,DF]2 [A,E] !arpeggio![G,A,DG]2 [F,F] | E2 [CEA]/>B/ [EAc]2 [EGce] | [F,A,DF-]3 [F,=A,EF]2 F | %5
 [DFBd]c>[DFB] f2 [FBdf] | [_GBe]2 [EF=Ad]/c/ [DFBd]2 [E_Ac] | [DFB]2 D [DEc]2 B | %8
 [A,CFA]3- [A,CFA]2 [A,EG] | [A,DF]2 [CA] G2 F | [=Ec]6 | !fermata!z6 | %12
!p! [CEAc]B>[CEA]!<(! [DB]2 [CEA]!<)! | F2 E !arpeggio![G,A,DG]2 [F,F] | EA[CEB] [EAc]2 [EGce] | %15
 [F,A,DF-]3 [F,=A,EF]2 F |!<(! [DFBd]c>[DFB] f2 [FBdf] | [_GBe]2 [EF=Ad]/c/ [DFBd]2 [E_Ac] | %18
 !arpeggio![B,DFB]!<)! z!<(! [DFAd] [cegc']2 [Begb]!<)! | [Acfa]3- [Acfa]2 [Gceg] | %20
 [FAdf]2 [Acea] [GBdg]2 [Ff] | [c=egc']6 | !fermata!z6 ||!p! [EAc]B>[CEA]!<(! [B,DB]2!<)! [CA] | %24
 F2 E !arpeggio![G,A,DG]2 [F,F] | [CE]A[CEB] [EAc]2 [EGce] | [F,A,DF-]3 [F,=A,EF]2 F | %27
 [DFBd]c>[DFB] f2 [FBdf] | [_GBe]2 [EF=Ad]/c/ [DFBd]2 [E_Ac] | [DFB]2 D [DEc]2!p!!>(! [GB]!>)! | %30
 !arpeggio![EFAe] z z !fermata!z2"^Very simple"!<(! [EBd] | %31
 [EAc]2 [A,E]!<)!"^molto rall:" !arpeggio![CDFc]2!>(! [DEGB] |!p! [E,A,CE]6!>)! |] %33
V:3
 x2 D- D x x || [A,,,E,,A,,]2 [E,,E,] [B,,,E,,B,,]2 [C,,C,] | [D,,A,,D,]2 [A,,C,] E,2 D, | %3
 !arpeggio![A,,,A,,C,]2 A,/>B,/ C2 [C,,C,] | [D,,A,,D,]3 [C,,F,,C,]3 | %5
 [B,,,F,,B,,] CB, F2 [D,,D,] | [C,,C,]2 [F,,F,] [B,,,B,,]2 [C,E,A,] | %7
 [D,F,A,B,]2 [B,,F,] [E,,G,]2"^rall:" D | [F,,C,F,]3- [F,,C,F,]2 [C,E,G,] | %9
 [D,F,]2 [A,,E,] B,2 A, | [C,G,]6 | !fermata!z6 | [A,,E,A,]2 E, [A,,E,F,]G,[A,,E,A,] | %13
 D,2 C, !arpeggio![A,,E,]2 D, | !arpeggio![A,,,A,,C,]A,B, C2 [C,,C,] | [D,,A,,D,]3 [C,,F,,C,]3 | %16
 [B,,,F,,B,,] CB, F2 [D,,D,] | [C,,C,]2 [F,,-F,] [C,,F,,B,,]2 [C,,C,] | %18
 !arpeggio![D,,D,F,A,] z [B,,,B,,][K:treble]{/[E,,,E,,]} [CDEG]2 [B,DEG] | %19
[K:bass] [F,,C,A,]3- [F,,C,A,]2 [C,E,G,] |"^With ecstasy" [D,F,]2 [A,,C,E,A,] [B,,D,G,]2 F, | %21
{/[C,,,C,,]} [=E,G,C]6 | !fermata!z6 || [A,,,E,,A,,]3 [A,,E,F,]!>(!G,[A,,E,A,]!>)! | %24
 D,2 C, !arpeggio![A,,,A,,E,]2 D, | [A,,E,A,]2 B,"^colla voce" C2 [C,,C,] | %26
 [D,,A,,D,]3 [C,,F,,C,]3 | [B,,,F,,B,,] CB, F2 [D,,D,] | [C,,C,]2 [F,,-F,] [B,,,F,,B,,]2 [C,E,A,] | %29
 [D,F,A,B,]2 [B,,F,] [E,,G,]2 [E,D] | %30
"^Delicately. A long pause."!ped! !arpeggio![F,A,CD] z z !fermata!z2 [G,B,D]!ped-up! | %31
 [A,C]2 !arpeggio!E,"^like a cello." C2 D | [A,,,A,,]6 |] %33
V:4
 z/ E,,/E,/-A,/-[E,-A,]/[E,G,]/- [E,G,] z z || x6 | x3 A,,3 | x6 | x6 | x6 | x6 | x6 | x6 | %9
 x3 B,,3 | x6 | x6 | x6 | A,,3 x3 | x6 | x6 | x6 | x6 | x3[K:treble] x3 |[K:bass] x6 | x6 | x6 | %22
 x6 || x6 | A,,3 x3 | x6 | x6 | x6 | x6 | x6 | x6 | x2 C,, !arpeggio![B,,,B,,]2 !arpeggio![E,,E,] | %32
 x6 |] %33
V:5
 x6 || x6 | x6 | !arpeggio![E,A,]2 x4 | x6 | x6 | x6 | x6 | x6 | x3[I:staff -1] D2 F | x6 | x6 | %12
 x6 | A,3 x3 |[I:staff +1] !arpeggio![E,A,] x5 | x6 | x6 | x6 | x3[K:treble] x3 |[K:bass] x6 | x6 | %21
 x6 | x6 ||[I:staff -1] C[I:staff +1]B,A, x3 |[I:staff -1] A,3 x3 | x6 | x6 | x6 | x6 | x6 | x6 | %31
 x6 | x6 |] %33

